src/assets/IconRulingInactive.svg

<svg width="555" height="555" fill="none" xmlns="http://www.w3.org/2000/svg"><path fill-rule="evenodd" clip-rule="evenodd" d="M277.539 555c153.047 0 277.116-124.068 277.116-277.115C554.655 124.838 430.586.77 277.539.77 124.493.77.424 124.838.424 277.885.424 430.932 124.493 555 277.539 555z" fill="#FFF3EF"/><path opacity=".7" fill-rule="evenodd" clip-rule="evenodd" d="M161.197 397.453c5.947 6.848 10.095 14.791 12.091 23.064 1.096 4.577-1.172 9.168-5.216 11.208l.016.029c-24.135 12.221-55.417 4.366-73.14-16.041-5.947-6.848-10.095-14.79-12.092-23.065-1.095-4.576 1.173-9.167 5.216-11.207 24.25-12.541 55.696-4.057 73.125 16.012zm116.796-82.985c.015 15.519.036 34.612 0 0zM158.261 124.991c13.071 23.416 6.801 54.373-12.236 72.892-6.535 6.356-14.218 10.958-22.311 13.411-4.842 1.467-9.929-.918-11.993-5.394-4.005-7.176-6.36-15.48-6.819-24.205-1.412-26.847 15.464-54.251 41.365-62.098 4.843-1.467 9.931.917 11.994 5.394zm-13.565 24.873a37.53 37.53 0 00-1.17-7.561c-14.648 9.181-22.355 28.736-17.978 45.355 12.473-7.818 19.923-23.217 19.148-37.794zm-58.983 45.532c-4.241-2.355-9.69-1.36-12.787 2.56-16.785 21.269-14.893 53.263 1.71 74.355 5.438 6.908 12.198 12.357 19.66 15.901 4.24 2.355 9.69 1.36 12.786-2.561 22.368-28.34 11.266-74.753-21.369-90.255zm3.373 28.312c9.21 11.48 12.021 28.206 6.287 41.702-13.392-11.069-18.423-31.368-11.694-47.206a37.953 37.953 0 015.407 5.504zm-28.511 64.847c-4.74-.16-9.074 3.048-10.153 7.827-5.978 26.484 9.62 54.771 33.75 66.746 7.987 3.963 16.587 5.992 25.013 5.943 4.739.16 9.074-3.047 10.153-7.826 7.976-35.335-22.179-72.901-58.763-72.69zm16.145 24.026c13.112 6.572 22.733 20.52 23.485 35.212-16.62-4.461-29.752-20.678-30.637-37.95a37.98 37.98 0 017.152 2.738zm36.769 82.414a37.31 37.31 0 00-7.713.753c8.426 15.221 27.62 24.202 44.562 20.71-7.181-12.971-22.166-21.383-36.849-21.463z" fill="url(#paint0_linear)"/><path opacity=".7" fill-rule="evenodd" clip-rule="evenodd" d="M394.825 397.459c-5.947 6.848-10.095 14.791-12.092 23.064-1.095 4.577 1.173 9.168 5.216 11.208l-.015.03c24.134 12.221 55.417 4.365 73.14-16.042 5.947-6.848 10.095-14.79 12.091-23.064 1.096-4.577-1.173-9.168-5.216-11.208-24.25-12.541-55.696-4.057-73.124 16.012zm-116.797-82.984c-.014 15.518-.036 34.612 0 0zm119.733-189.478c-13.071 23.417-6.802 54.373 12.236 72.892 6.534 6.356 14.217 10.958 22.31 13.411 4.843 1.467 9.93-.918 11.993-5.394 4.005-7.176 6.36-15.48 6.82-24.204 1.411-26.848-15.464-54.251-41.366-62.098-4.843-1.468-9.93.917-11.993 5.393zm13.565 24.873a37.54 37.54 0 011.169-7.561c14.649 9.182 22.356 28.736 17.978 45.355-12.473-7.817-19.923-23.217-19.147-37.794zm58.982 45.532c4.241-2.355 9.691-1.36 12.787 2.561 16.786 21.268 14.893 53.262-1.71 74.354-5.437 6.908-12.198 12.357-19.659 15.901-4.241 2.355-9.691 1.36-12.787-2.56-22.368-28.34-11.265-74.754 21.369-90.256zm-3.373 28.312c-9.21 11.48-12.021 28.206-6.286 41.703 13.391-11.069 18.422-31.369 11.694-47.206a37.93 37.93 0 00-5.408 5.503zm28.512 64.847c4.739-.159 9.074 3.048 10.152 7.827 5.979 26.484-9.62 54.771-33.75 66.747-7.986 3.962-16.586 5.992-25.013 5.943-4.739.159-9.074-3.048-10.152-7.827-7.977-35.335 22.179-72.901 58.763-72.69zm-16.145 24.026c-13.112 6.573-22.734 20.52-23.486 35.213 16.621-4.461 29.753-20.679 30.637-37.95a37.984 37.984 0 00-7.151 2.737zm-36.769 82.415a37.316 37.316 0 017.713.752c-8.426 15.222-27.62 24.203-44.563 20.711 7.181-12.971 22.166-21.384 36.85-21.463z" fill="url(#paint1_linear)"/><path opacity=".668" d="M277.378 207.695H155.36v140.896h122.018V207.695z" fill="url(#paint2_linear)"/><path opacity=".668" d="M399.405 207.695H277.387v140.896h122.018V207.695z" fill="url(#paint3_linear)"/><path d="M277.403 278.128l-22.015 70.449 22.015 70.449 122.018-70.449-122.018-70.449z" fill="url(#paint4_linear)"/><path d="M155.36 348.577l122.018 70.449V278.128L155.36 348.577z" fill="url(#paint5_linear)"/><path d="M277.403 137.237l-22.015 70.449 22.015 70.449 122.018-70.449-122.018-70.449z" fill="url(#paint6_linear)"/><path d="M155.361 207.686l122.018 70.449V137.237l-122.018 70.449z" fill="url(#paint7_linear)"/><defs><linearGradient id="paint0_linear" x1="103.816" y1="72.99" x2="369.945" y2="215.972" gradientUnits="userSpaceOnUse"><stop stop-color="#FFECDB"/><stop offset="1" stop-color="#FF9898"/></linearGradient><linearGradient id="paint1_linear" x1="452.205" y1="72.997" x2="186.077" y2="215.979" gradientUnits="userSpaceOnUse"><stop stop-color="#FFECDB"/><stop offset="1" stop-color="#FF9898"/></linearGradient><linearGradient id="paint2_linear" x1="316.178" y1="313.367" x2="244.02" y2="233.884" gradientUnits="userSpaceOnUse"><stop stop-color="#FFE6DC"/><stop offset="1" stop-color="#FFDBCE"/></linearGradient><linearGradient id="paint3_linear" x1="438.204" y1="313.367" x2="366.046" y2="233.884" gradientUnits="userSpaceOnUse"><stop stop-color="#FFE6DC"/><stop offset="1" stop-color="#FFDBCE"/></linearGradient><linearGradient id="paint4_linear" x1="289.795" y1="257.695" x2="426.065" y2="361.814" gradientUnits="userSpaceOnUse"><stop stop-color="#FFEFE0"/><stop offset="1" stop-color="#FBB"/></linearGradient><linearGradient id="paint5_linear" x1="184.509" y1="257.695" x2="313.36" y2="341.098" gradientUnits="userSpaceOnUse"><stop stop-color="#FFEFE0"/><stop offset="1" stop-color="#FBB"/></linearGradient><linearGradient id="paint6_linear" x1="445.22" y1="242.91" x2="375.152" y2="151.806" gradientUnits="userSpaceOnUse"><stop stop-color="#FFCEBB"/><stop offset="1" stop-color="#FFE6DD"/></linearGradient><linearGradient id="paint7_linear" x1="316.179" y1="242.91" x2="244.019" y2="163.428" gradientUnits="userSpaceOnUse"><stop stop-color="#FFCEBB"/><stop offset="1" stop-color="#FFF2ED"/></linearGradient></defs></svg>

<svg width="555" height="555" viewBox="0 0 555 555" fill="none" xmlns="http://www.w3.org/2000/svg">
<path fill-rule="evenodd" clip-rule="evenodd" d="M277.539 555C430.586 555 554.655 430.932 554.655 277.885C554.655 124.838 430.586 0.769531 277.539 0.769531C124.493 0.769531 0.423828 124.838 0.423828 277.885C0.423828 430.932 124.493 555 277.539 555Z" fill="#FFF3EF"/>
<path opacity="0.7" fill-rule="evenodd" clip-rule="evenodd" d="M161.197 397.453C167.144 404.301 171.292 412.244 173.288 420.517C174.384 425.094 172.116 429.685 168.072 431.725L168.088 431.754C143.953 443.975 112.671 436.12 94.9478 415.713C89.0009 408.865 84.8527 400.923 82.8563 392.648C81.7609 388.072 84.029 383.481 88.0723 381.441C112.322 368.9 143.768 377.384 161.197 397.453ZM277.993 314.468C278.008 329.987 278.029 349.08 277.993 314.468V314.468ZM158.261 124.991C171.332 148.407 165.062 179.364 146.025 197.883C139.49 204.239 131.807 208.841 123.714 211.294C118.872 212.761 113.785 210.376 111.721 205.9C107.716 198.724 105.361 190.42 104.902 181.695C103.49 154.848 120.366 127.444 146.267 119.597C151.11 118.13 156.198 120.514 158.261 124.991ZM144.696 149.864C144.557 147.249 144.161 144.715 143.526 142.303C128.878 151.484 121.171 171.039 125.548 187.658C138.021 179.84 145.471 164.441 144.696 149.864ZM85.7134 195.396C81.472 193.041 76.0225 194.036 72.9264 197.956C56.1409 219.225 58.0335 251.219 74.6364 272.311C80.0739 279.219 86.8344 284.668 94.2953 288.212C98.5366 290.567 103.986 289.572 107.082 285.651C129.45 257.311 118.348 210.898 85.7134 195.396ZM89.086 223.708C98.2963 235.188 101.107 251.914 95.3727 265.41C81.981 254.341 76.9501 234.042 83.6788 218.204C85.6232 219.812 87.4392 221.655 89.086 223.708ZM60.5746 288.555C55.8356 288.395 51.5006 291.603 50.422 296.382C44.4436 322.866 60.0421 351.153 84.1727 363.128C92.1587 367.091 100.759 369.12 109.185 369.071C113.924 369.231 118.259 366.024 119.338 361.245C127.314 325.91 97.159 288.344 60.5746 288.555ZM76.7196 312.581C89.8318 319.153 99.4533 333.101 100.205 347.793C83.5849 343.332 70.4528 327.115 69.5684 309.843C71.9736 310.489 74.3728 311.405 76.7196 312.581ZM113.489 394.995C110.846 394.981 108.26 395.237 105.776 395.748C114.202 410.969 133.396 419.95 150.338 416.458C143.157 403.487 128.172 395.075 113.489 394.995Z" fill="url(#paint0_linear)"/>
<path opacity="0.7" fill-rule="evenodd" clip-rule="evenodd" d="M394.825 397.459C388.878 404.307 384.73 412.25 382.733 420.523C381.638 425.1 383.906 429.691 387.949 431.731L387.934 431.761C412.068 443.982 443.351 436.126 461.074 415.719C467.021 408.871 471.169 400.929 473.165 392.655C474.261 388.078 471.992 383.487 467.949 381.447C443.699 368.906 412.253 377.39 394.825 397.459ZM278.028 314.475C278.014 329.993 277.992 349.087 278.028 314.475V314.475ZM397.761 124.997C384.69 148.414 390.959 179.37 409.997 197.889C416.531 204.245 424.214 208.847 432.307 211.3C437.15 212.767 442.237 210.382 444.3 205.906C448.305 198.73 450.66 190.426 451.12 181.702C452.531 154.854 435.656 127.451 409.754 119.604C404.911 118.136 399.824 120.521 397.761 124.997ZM411.326 149.87C411.465 147.256 411.86 144.721 412.495 142.309C427.144 151.491 434.851 171.045 430.473 187.664C418 179.847 410.55 164.447 411.326 149.87ZM470.308 195.402C474.549 193.047 479.999 194.042 483.095 197.963C499.881 219.231 497.988 251.225 481.385 272.317C475.948 279.225 469.187 284.674 461.726 288.218C457.485 290.573 452.035 289.578 448.939 285.658C426.571 257.318 437.674 210.904 470.308 195.402ZM466.935 223.714C457.725 235.194 454.914 251.92 460.649 265.417C474.04 254.348 479.071 234.048 472.343 218.211C470.398 219.818 468.582 221.662 466.935 223.714ZM495.447 288.561C500.186 288.402 504.521 291.609 505.599 296.388C511.578 322.872 495.979 351.159 471.849 363.135C463.863 367.097 455.263 369.127 446.836 369.078C442.097 369.237 437.762 366.03 436.684 361.251C428.707 325.916 458.863 288.35 495.447 288.561ZM479.302 312.587C466.19 319.16 456.568 333.107 455.816 347.8C472.437 343.339 485.569 327.121 486.453 309.85C484.048 310.496 481.649 311.411 479.302 312.587ZM442.533 395.002C445.175 394.988 447.762 395.243 450.246 395.754C441.82 410.976 422.626 419.957 405.683 416.465C412.864 403.494 427.849 395.081 442.533 395.002Z" fill="url(#paint1_linear)"/>
<path opacity="0.668271" d="M277.378 207.695H155.36V348.591H277.378V207.695Z" fill="url(#paint2_linear)"/>
<path opacity="0.668271" d="M399.405 207.695H277.387V348.591H399.405V207.695Z" fill="url(#paint3_linear)"/>
<path d="M277.403 278.128L255.388 348.577L277.403 419.026L399.421 348.577L277.403 278.128Z" fill="url(#paint4_linear)"/>
<path d="M155.36 348.577L277.378 419.026V278.128L155.36 348.577Z" fill="url(#paint5_linear)"/>
<path d="M277.403 137.237L255.388 207.686L277.403 278.135L399.421 207.686L277.403 137.237Z" fill="url(#paint6_linear)"/>
<path d="M155.361 207.686L277.379 278.135V137.237L155.361 207.686Z" fill="url(#paint7_linear)"/>
<defs>
<linearGradient id="paint0_linear" x1="103.816" y1="72.9905" x2="369.945" y2="215.972" gradientUnits="userSpaceOnUse">
<stop stop-color="#FFECDB"/>
<stop offset="1" stop-color="#FF9898"/>
</linearGradient>
<linearGradient id="paint1_linear" x1="452.205" y1="72.9969" x2="186.077" y2="215.979" gradientUnits="userSpaceOnUse">
<stop stop-color="#FFECDB"/>
<stop offset="1" stop-color="#FF9898"/>
</linearGradient>
<linearGradient id="paint2_linear" x1="316.178" y1="313.367" x2="244.02" y2="233.884" gradientUnits="userSpaceOnUse">
<stop stop-color="#FFE6DC"/>
<stop offset="1" stop-color="#FFDBCE"/>
</linearGradient>
<linearGradient id="paint3_linear" x1="438.204" y1="313.367" x2="366.046" y2="233.884" gradientUnits="userSpaceOnUse">
<stop stop-color="#FFE6DC"/>
<stop offset="1" stop-color="#FFDBCE"/>
</linearGradient>
<linearGradient id="paint4_linear" x1="289.795" y1="257.695" x2="426.065" y2="361.814" gradientUnits="userSpaceOnUse">
<stop stop-color="#FFEFE0"/>
<stop offset="1" stop-color="#FFBBBB"/>
</linearGradient>
<linearGradient id="paint5_linear" x1="184.509" y1="257.695" x2="313.36" y2="341.098" gradientUnits="userSpaceOnUse">
<stop stop-color="#FFEFE0"/>
<stop offset="1" stop-color="#FFBBBB"/>
</linearGradient>
<linearGradient id="paint6_linear" x1="445.22" y1="242.91" x2="375.152" y2="151.806" gradientUnits="userSpaceOnUse">
<stop stop-color="#FFCEBB"/>
<stop offset="1" stop-color="#FFE6DD"/>
</linearGradient>
<linearGradient id="paint7_linear" x1="316.179" y1="242.91" x2="244.019" y2="163.428" gradientUnits="userSpaceOnUse">
<stop stop-color="#FFCEBB"/>
<stop offset="1" stop-color="#FFF2ED"/>
</linearGradient>
</defs>
</svg>
